m/partners/pnr03.svg

<svg width="55" height="54" viewBox="0 0 55 54" fill="none" xmlns="http://www.w3.org/2000/svg">
<g clip-path="url(#clip0_3268_6088)">
<path d="M26.723 54.1289C12.2125 54.1289 0.449463 42.0453 0.449463 27.1398C0.449463 12.2344 12.2125 0.150833 26.723 0.150833C41.2331 0.150833 52.9963 12.2344 52.9963 27.1398C52.9963 42.0453 41.2331 54.1289 26.723 54.1289ZM26.7228 4.30445C14.4458 4.30445 4.49283 14.5283 4.49283 27.1396C4.49283 39.7511 14.4458 49.975 26.7228 49.975C38.9997 49.975 48.9525 39.7511 48.9525 27.1396C48.9525 14.5283 38.9997 4.30445 26.7228 4.30445Z" fill="#2B354E"/>
<path d="M35.4027 46.0482C34.5481 46.0477 31.4338 40.4026 31.0152 38.7932C30.1402 35.4235 30.3285 33.9998 30.3808 33.5447C30.5411 32.155 31.8649 31.4606 31.945 29.5813C31.9698 29.001 32.2576 26.0995 32.4873 23.8331C31.9205 23.7201 31.3559 23.4598 30.8539 23.0559C32.3609 25.1145 30.1429 27.5816 26.9201 30.8642C23.4995 34.348 15.907 37.5814 15.907 37.5814C15.907 37.5814 19.082 29.8486 22.5025 26.3648C25.0169 23.8042 27.0435 21.8664 28.773 21.8664C29.2605 21.8664 29.7246 22.0204 30.1691 22.3576C29.7723 21.8467 29.517 21.2719 29.4058 20.6946C27.1804 20.9291 24.3314 21.2216 23.7619 21.2472C21.9164 21.3288 21.2345 22.6771 19.8709 22.84C19.7139 22.8589 19.4396 22.895 19.0064 22.895C18.2061 22.895 16.8637 22.7723 14.7174 22.1936C12.9987 21.7306 6.59443 18.0201 7.72715 17.5538C8.30477 17.3157 10.1457 17.1547 12.5701 17.1547C14.9017 17.1547 17.773 17.3035 20.5777 17.6757C24.0748 18.1397 27.2815 18.7267 29.4668 19.1633C29.5022 19.0437 29.5448 18.9274 29.5957 18.8145L27.3617 17.724C27.3617 17.724 25.5773 15.6385 25.7678 15.4947C25.7752 15.4892 25.7845 15.4864 25.7957 15.4864C26.0756 15.4864 27.5031 17.1486 27.6404 17.3379C27.7462 17.3737 28.3514 17.5794 28.988 17.795L28.3561 17.2322C28.3561 17.2322 27.4911 13.9696 27.7165 13.8927C27.7192 13.8919 27.7222 13.8913 27.7255 13.8913C27.9628 13.8913 28.7477 16.7284 28.815 16.9321C28.9692 17.0698 29.4903 17.2766 30.1413 17.659L29.4567 15.8655C29.4567 15.8655 29.7666 12.9066 29.9985 12.9066C30.0004 12.9066 30.002 12.9069 30.0039 12.9071C30.2375 12.9546 29.9582 15.3751 29.899 15.6765C29.9838 15.8089 30.5089 16.6293 31.0354 17.452C31.3594 17.3276 31.708 17.2663 32.0658 17.2663C32.4764 17.2663 32.8988 17.3473 33.3087 17.5069C32.7838 16.3687 32.8236 15.1825 33.5196 14.4742C33.7398 14.2494 34.0074 14.0925 34.3055 13.9996C34.3415 13.7925 34.4358 13.596 34.5903 13.4384C34.7917 13.2335 35.0569 13.1317 35.3253 13.1317C35.6063 13.1317 35.891 13.2435 36.109 13.4658C36.3181 13.6782 36.4265 13.9527 36.4358 14.226C36.7718 13.5208 37.1683 12.5691 37.1405 12.2607C37.0759 11.563 36.2813 10.3279 36.2739 10.3154C36.2221 10.2357 36.2437 10.1281 36.3224 10.075C36.351 10.0559 36.3835 10.0467 36.4156 10.0467C36.4709 10.0467 36.5252 10.0742 36.5576 10.125C36.5927 10.1783 37.407 11.4445 37.4795 12.2285C37.5198 12.677 37.0143 13.8072 36.7388 14.3845C37.1258 14.6002 37.5029 14.8849 37.8474 15.2358C38.1916 15.5863 38.4712 15.9704 38.6832 16.3648C39.2285 16.0948 40.2747 15.6082 40.7464 15.6082C40.7652 15.6082 40.7832 15.6088 40.8001 15.6104C41.5696 15.6843 42.8131 16.5136 42.8652 16.5488C42.9437 16.6013 42.9655 16.709 42.9137 16.7889C42.881 16.8394 42.8267 16.8669 42.7714 16.8669C42.7395 16.8669 42.7071 16.8577 42.6785 16.8383C42.6662 16.8303 41.4538 16.0212 40.7685 15.956C40.7581 15.9549 40.7469 15.9546 40.7352 15.9546C40.4019 15.9546 39.507 16.3423 38.8383 16.6732C39.1072 16.6823 39.3767 16.7934 39.5849 17.0062C40.012 17.4406 40.0237 18.1328 39.6119 18.5522C39.4574 18.7098 39.2647 18.8067 39.0614 18.8428C38.9696 19.1467 38.8154 19.4192 38.5952 19.6435C38.2115 20.0345 37.6855 20.2219 37.1029 20.2219C36.6293 20.2219 36.1183 20.0978 35.6172 19.8583C35.9107 20.6388 35.933 21.465 35.6714 22.1733C36.4786 22.7096 37.2852 23.2447 37.4144 23.331C37.6264 23.288 38.8996 23.1306 39.6264 23.1306C39.9169 23.1306 40.1204 23.1556 40.1335 23.2233C40.1806 23.4609 37.2293 23.7817 37.2293 23.7817L35.4681 23.0837C35.8439 23.7473 36.0461 24.2777 36.1815 24.4351C36.3851 24.5044 39.2408 25.3243 39.1655 25.5539C39.1571 25.5805 39.107 25.5919 39.0249 25.5919C38.3954 25.5919 35.8872 24.9022 35.8872 24.9022L35.334 24.2585C35.5463 24.9072 35.7477 25.523 35.7834 25.631C35.9769 25.7767 37.7338 27.3435 37.5929 27.538C37.5855 27.5481 37.5735 27.5525 37.5569 27.5525C37.2487 27.5525 35.4043 25.9152 35.4043 25.9152L34.3333 23.6396C34.2227 23.6918 34.1083 23.7345 33.9905 23.7709C34.4192 25.9965 34.9958 29.2625 35.452 32.824C36.1971 38.651 36.0295 44.7576 35.5716 45.9123C35.5349 46.0052 35.4774 46.0482 35.4027 46.0482Z" fill="#2B354E"/>
<path d="M46.883 50.5482H45.6354V53.978H44.7962V50.5482H43.5654V49.8611H46.883V50.5482Z" fill="#2B354E"/>
<path d="M48.4607 49.8611L49.5069 52.847L50.5474 49.8611H51.6496V53.978H50.8076V52.8526L50.8915 50.9101L49.7922 53.978H49.2159L48.1194 50.9129L48.2033 52.8526V53.978H47.3641V49.8611H48.4607Z" fill="#2B354E"/>
</g>
<defs>
<clipPath id="clip0_3268_6088">
<rect width="54.7925" height="53.978" fill="white"/>
</clipPath>
</defs>
</svg>

<svg xmlns="http://www.w3.org/2000/svg" fill="none" viewBox="0 0 55 54"><g fill="#2B354E" clip-path="url(#a)"><path d="M26.723 54.129c-14.51 0-26.274-12.084-26.274-26.99C.45 12.235 12.213.152 26.723.152c14.51 0 26.273 12.083 26.273 26.989 0 14.905-11.763 26.989-26.273 26.989Zm0-49.825c-12.277 0-22.23 10.224-22.23 22.836 0 12.611 9.953 22.835 22.23 22.835 12.277 0 22.23-10.224 22.23-22.835 0-12.612-9.953-22.836-22.23-22.836Z"/><path d="M35.403 46.048c-.855 0-3.97-5.645-4.388-7.255-.875-3.37-.687-4.793-.634-5.248.16-1.39 1.484-2.084 1.564-3.964.025-.58.313-3.482.542-5.748a3.806 3.806 0 0 1-1.633-.777c1.507 2.058-.711 4.526-3.934 7.808-3.42 3.484-11.013 6.717-11.013 6.717s3.175-7.732 6.596-11.216c2.514-2.56 4.54-4.499 6.27-4.499.488 0 .952.154 1.396.492a3.937 3.937 0 0 1-.763-1.663c-2.226.234-5.075.527-5.644.552-1.846.082-2.527 1.43-3.891 1.593-.157.019-.431.055-.865.055-.8 0-2.142-.123-4.289-.701-1.718-.463-8.123-4.174-6.99-4.64.578-.238 2.419-.4 4.843-.4 2.332 0 5.203.15 8.008.522 3.497.464 6.704 1.05 8.889 1.487.035-.12.078-.236.129-.349l-2.234-1.09s-1.785-2.085-1.594-2.23a.046.046 0 0 1 .028-.008c.28 0 1.707 1.663 1.844 1.852l1.348.457-.632-.563s-.865-3.262-.64-3.34a.031.031 0 0 1 .01 0c.237 0 1.022 2.836 1.089 3.04.154.138.675.345 1.326.727l-.684-1.793s.31-2.96.541-2.96l.006.001c.233.048-.046 2.468-.105 2.77l1.136 1.775a2.87 2.87 0 0 1 1.03-.186c.411 0 .834.081 1.244.24-.525-1.137-.485-2.324.21-3.032.22-.225.488-.382.787-.474.036-.207.13-.404.284-.562.202-.205.467-.306.735-.306.281 0 .566.111.784.334.21.212.317.487.327.76.336-.705.732-1.657.705-1.965-.065-.698-.86-1.933-.867-1.946a.176.176 0 0 1 .048-.24.167.167 0 0 1 .236.05c.035.053.849 1.32.922 2.104.04.448-.466 1.578-.741 2.155.387.216.764.5 1.108.852.345.35.624.734.836 1.129.545-.27 1.592-.757 2.063-.757.02 0 .037 0 .054.002.77.074 2.013.904 2.065.939.079.052.1.16.049.24a.17.17 0 0 1-.143.078.165.165 0 0 1-.093-.029c-.012-.008-1.224-.817-1.91-.882a.32.32 0 0 0-.033-.001c-.333 0-1.228.387-1.897.718.27.01.539.12.747.333.427.435.439 1.127.027 1.546a1.016 1.016 0 0 1-.55.29 1.923 1.923 0 0 1-.467.802c-.383.39-.91.578-1.492.578-.474 0-.985-.124-1.486-.364.294.78.316 1.607.054 2.315l1.743 1.158c.212-.043 1.486-.2 2.212-.2.29 0 .494.025.508.092.047.238-2.905.559-2.905.559l-1.76-.698c.375.663.577 1.194.712 1.351.204.07 3.06.89 2.985 1.119-.009.027-.059.038-.141.038-.63 0-3.138-.69-3.138-.69l-.553-.643.45 1.372c.193.146 1.95 1.712 1.809 1.907-.008.01-.02.014-.036.014-.308 0-2.153-1.637-2.153-1.637l-1.07-2.275c-.111.052-.226.095-.344.13a149.172 149.172 0 0 1 1.462 9.054c.745 5.827.578 11.934.12 13.088-.037.093-.095.136-.17.136ZM46.883 50.548h-1.248v3.43h-.839v-3.43h-1.23v-.687h3.317v.687ZM48.46 49.861l1.047 2.986 1.04-2.986h1.103v4.117h-.842v-1.125l.084-1.943-1.1 3.068h-.576l-1.097-3.065.084 1.94v1.125h-.839v-4.117h1.097Z"/></g><defs><clipPath id="a"><path fill="#fff" d="M0 0h54.792v53.978H0z"/></clipPath></defs></svg>
